images/icons/clients-icons/client5.svg

<svg width="106" height="60" viewBox="0 0 106 60" fill="none" xmlns="http://www.w3.org/2000/svg">
<rect width="106" height="60" fill="#E5E5E5"/>
<rect width="1600" height="2931" transform="translate(-1047 -2509)" fill="white"/>
<rect x="-31.5" y="-15.5" width="169" height="91" rx="3.5" stroke="#AFB1B8"/>
<path d="M26.7569 44.7352C27.0006 45.0114 27.1304 45.3572 27.1236 45.7122C27.136 45.9437 27.0914 46.1749 26.993 46.3885C26.8947 46.6021 26.7451 46.7927 26.5554 46.9463C26.082 47.2736 25.4956 47.4336 24.9037 47.3969H22V41.2055H24.8442C25.4057 41.1713 25.9626 41.3167 26.42 41.6168C26.6036 41.7576 26.7491 41.9355 26.8448 42.1365C26.9406 42.3376 26.984 42.5562 26.9716 42.7753C26.9883 43.1168 26.8712 43.4526 26.6413 43.722C26.4206 43.968 26.1156 44.1385 25.7758 44.2059C26.161 44.2703 26.5087 44.4579 26.7569 44.7352ZM23.3511 43.8006H24.5667C24.843 43.8193 25.1174 43.7463 25.3397 43.5949C25.431 43.5192 25.502 43.4252 25.5473 43.3203C25.5925 43.2154 25.6108 43.1024 25.6007 42.99C25.6093 42.878 25.5906 42.7657 25.5461 42.661C25.5015 42.5564 25.4322 42.4622 25.343 42.3851C25.1141 42.2294 24.8312 42.1553 24.5469 42.1764H23.3511V43.8006ZM25.4587 46.175C25.5562 46.0974 25.6329 46.0003 25.6828 45.8912C25.7326 45.7821 25.7543 45.6639 25.7461 45.5458C25.7535 45.4264 25.7309 45.307 25.6799 45.1969C25.6289 45.0868 25.551 44.9888 25.4521 44.9107C25.2142 44.7492 24.9217 44.6699 24.6262 44.6868H23.3511V46.3897H24.6427C24.9334 46.4051 25.2212 46.3293 25.4587 46.175Z" fill="#AFB1B8"/>
<path d="M32.5709 47.3969L30.9886 44.9772H30.394V47.3969H29.033V41.2055H31.6096C32.2591 41.164 32.9012 41.3524 33.4034 41.7318C33.7635 42.0678 33.9808 42.5106 34.0159 42.9803C34.051 43.45 33.9018 43.9158 33.595 44.2937C33.2771 44.6271 32.8428 44.8494 32.3661 44.9228L34.0508 47.3969H32.5709ZM30.394 44.1333H31.5072C32.2802 44.1333 32.6667 43.8208 32.6667 43.1957C32.6746 43.0681 32.6534 42.9403 32.6045 42.8205C32.5556 42.7008 32.48 42.5916 32.3826 42.5C32.1383 42.314 31.8237 42.2238 31.5072 42.249H30.3807L30.394 44.1333Z" fill="#AFB1B8"/>
<path d="M40.0102 46.1506H37.2981L36.8191 47.3968H35.392L37.8828 41.2749H39.4255L41.9063 47.3968H40.4793L40.0102 46.1506ZM39.6468 45.213L38.6558 42.5997L37.6648 45.213H39.6468Z" fill="#AFB1B8"/>
<path d="M49.3224 47.3969H47.9713L44.9421 43.1866V47.3969H43.5943V41.2054H44.9421L47.9713 45.44V41.2054H49.3224V47.3969Z" fill="#AFB1B8"/>
<path d="M57.0326 45.9149C56.7532 46.3823 56.3276 46.7626 55.8103 47.0068C55.2222 47.2788 54.5695 47.4128 53.9109 47.397H51.506V41.2055H53.9109C54.5684 41.1898 55.2202 41.3206 55.8103 41.5866C56.3275 41.8253 56.7536 42.2017 57.0326 42.6664C57.3107 43.17 57.4556 43.7263 57.4556 44.2906C57.4556 44.8549 57.3107 45.4113 57.0326 45.9149ZM55.4866 45.7667C55.8722 45.3554 56.0842 44.8312 56.0842 44.2891C56.0842 43.7471 55.8722 43.2229 55.4866 42.8116C55.0205 42.439 54.4127 42.2499 53.7952 42.2853H52.8571V46.293H53.7952C54.4127 46.3283 55.0205 46.1392 55.4866 45.7667Z" fill="#AFB1B8"/>
<path d="M40.8558 6.76672C40.8558 6.76672 58.2945 12.7949 57.9245 21.518V36.2722C57.9245 36.2722 40.4991 30.2411 40.8624 21.518L40.8558 6.76672Z" fill="#AFB1B8"/>
<path d="M73.4603 32.8181C76.7538 30.7428 80.5633 29.4574 84.5399 29.0796V24.4609C79.9579 26.0779 76.0709 29.0098 73.4603 32.8181Z" fill="#AFB1B8"/>
<path d="M71.4816 34.2095C74.1773 29.2396 78.8505 25.4046 84.54 23.4932V10.1847C84.54 10.1847 59.705 18.7717 60.2303 31.1939V52.2001C60.2303 52.2001 61.3369 51.816 63.0778 51.0961C63.0778 50.4247 63.0778 49.7472 63.1571 49.0666C63.6711 43.2996 66.6654 37.9556 71.4816 34.2095Z" fill="#AFB1B8"/>
<path d="M69.1197 42.0131C69.2502 40.5563 69.5413 39.1152 69.9885 37.712C66.9896 40.9471 65.1734 44.9614 64.7956 49.1906C64.7592 49.5899 64.7394 49.9891 64.7295 50.4005C66.14 49.7804 67.7818 49.0061 69.5062 48.0957C69.0662 46.0948 68.936 44.0472 69.1197 42.0131Z" fill="#AFB1B8"/>
<path d="M70.1075 42.0887C69.9421 43.929 70.0454 45.7813 70.4147 47.5966C77.1999 43.8793 84.8241 38.1355 84.5301 31.1939V30.589C79.6824 31.0856 75.1468 33.026 71.6204 36.112C70.7948 38.0244 70.2849 40.0387 70.1075 42.0887Z" fill="#AFB1B8"/>
</svg>

<svg width="106" height="60" fill="none" xmlns="http://www.w3.org/2000/svg"><path fill="#E5E5E5" d="M0 0h106v60H0z"/><path fill="#fff" d="M-1047-2509H553V422h-1600z"/><rect x="-31.5" y="-15.5" width="169" height="91" rx="3.5" stroke="#AFB1B8"/><path d="M26.757 44.735c.244.276.373.622.367.977a1.43 1.43 0 0 1-.131.676 1.558 1.558 0 0 1-.438.558 2.627 2.627 0 0 1-1.651.45H22v-6.19h2.844a2.593 2.593 0 0 1 1.576.41c.184.142.33.32.425.52.096.202.139.42.127.64.016.34-.1.677-.33.946-.221.246-.526.416-.866.484.385.064.733.252.98.53Zm-3.406-.934h1.216c.276.018.55-.055.773-.206a.738.738 0 0 0 .207-.275.68.68 0 0 0 .054-.33.702.702 0 0 0-.055-.329.759.759 0 0 0-.203-.276 1.255 1.255 0 0 0-.796-.209H23.35v1.625Zm2.108 2.374a.777.777 0 0 0 .224-.284.712.712 0 0 0 .063-.345.722.722 0 0 0-.066-.35.788.788 0 0 0-.228-.285 1.338 1.338 0 0 0-.826-.224h-1.275v1.703h1.292c.29.015.578-.06.816-.215ZM32.57 47.397l-1.581-2.42h-.595v2.42h-1.361v-6.191h2.577a2.699 2.699 0 0 1 1.793.526c.36.336.578.779.613 1.248a1.86 1.86 0 0 1-.421 1.314 2.148 2.148 0 0 1-1.229.629l1.685 2.474h-1.48Zm-2.176-3.264h1.113c.773 0 1.16-.312 1.16-.937a.852.852 0 0 0-.063-.375.917.917 0 0 0-.221-.321 1.282 1.282 0 0 0-.876-.251h-1.126l.013 1.884ZM40.01 46.15h-2.712l-.479 1.247h-1.427l2.49-6.122h1.544l2.48 6.122H40.48l-.469-1.246Zm-.363-.937-.991-2.613-.991 2.613h1.982ZM49.322 47.397h-1.35l-3.03-4.21v4.21h-1.348v-6.192h1.348l3.03 4.235v-4.235h1.35v6.192ZM57.033 45.915c-.28.467-.705.848-1.223 1.092a4.288 4.288 0 0 1-1.9.39h-2.404v-6.191h2.405a4.376 4.376 0 0 1 1.9.38c.517.24.943.616 1.222 1.08.278.504.423 1.06.423 1.625 0 .564-.145 1.12-.423 1.624Zm-1.546-.148a2.16 2.16 0 0 0 .597-1.478c0-.542-.212-1.066-.597-1.477a2.488 2.488 0 0 0-1.692-.527h-.938v4.008h.938a2.49 2.49 0 0 0 1.692-.526ZM40.856 6.767s17.438 6.028 17.069 14.751v14.754s-17.426-6.03-17.063-14.754l-.006-14.751ZM73.46 32.818c3.294-2.075 7.103-3.36 11.08-3.738v-4.62c-4.582 1.618-8.47 4.55-11.08 8.358Z" fill="#AFB1B8"/><path d="M71.482 34.21c2.695-4.97 7.368-8.805 13.058-10.717V10.185s-24.835 8.587-24.31 21.009V52.2s1.107-.384 2.848-1.104c0-.671 0-1.349.08-2.03.513-5.766 3.507-11.11 8.324-14.857Z" fill="#AFB1B8"/><path d="M69.12 42.013c.13-1.457.421-2.898.868-4.301-2.998 3.235-4.815 7.25-5.192 11.479-.037.399-.057.798-.067 1.21a74.756 74.756 0 0 0 4.777-2.305c-.44-2.001-.57-4.049-.386-6.083ZM70.108 42.089a19.051 19.051 0 0 0 .307 5.508c6.785-3.718 14.41-9.462 14.115-16.403v-.605c-4.848.497-9.383 2.437-12.91 5.523a19.259 19.259 0 0 0-1.513 5.977Z" fill="#AFB1B8"/></svg>
